assets/img/components/toggle.svg

<svg width="272" height="143" viewBox="0 0 272 143" fill="none" xmlns="http://www.w3.org/2000/svg">
<rect width="272" height="143" rx="8" fill="#EFF6FB"/>
<rect x="74" y="117" width="50" height="29" rx="14.5" transform="rotate(180 74 117)" fill="#BEC0C1"/>
<circle cx="39.5" cy="102.5" r="12.5" transform="rotate(180 39.5 102.5)" fill="white"/>
<path d="M39.5 103.831L34.8422 108.489C34.6679 108.663 34.4461 108.75 34.1768 108.75C33.9075 108.75 33.6857 108.663 33.5114 108.489C33.3371 108.314 33.25 108.093 33.25 107.823C33.25 107.554 33.3371 107.332 33.5114 107.158L38.1692 102.5L33.5114 97.8422C33.3371 97.6679 33.25 97.4461 33.25 97.1768C33.25 96.9075 33.3371 96.6857 33.5114 96.5114C33.6857 96.3371 33.9075 96.25 34.1768 96.25C34.4461 96.25 34.6679 96.3371 34.8422 96.5114L39.5 101.169L44.1578 96.5114C44.3321 96.3371 44.5539 96.25 44.8232 96.25C45.0925 96.25 45.3143 96.3371 45.4886 96.5114C45.6629 96.6857 45.75 96.9075 45.75 97.1768C45.75 97.4461 45.6629 97.6679 45.4886 97.8422L40.8308 102.5L45.4886 107.158C45.6629 107.332 45.75 107.554 45.75 107.823C45.75 108.093 45.6629 108.314 45.4886 108.489C45.3143 108.663 45.0925 108.75 44.8232 108.75C44.5539 108.75 44.3321 108.663 44.1578 108.489L39.5 103.831Z" fill="#BEC0C1" stroke="#BEC0C1"/>
<rect x="24" y="27" width="50" height="29" rx="14.5" fill="#124A73"/>
<ellipse cx="59.5" cy="41.5" rx="12.5" ry="12.5" fill="white"/>
<path d="M57.4904 44.5377L54.4043 41.4361C54.1416 41.1716 53.8057 41.0393 53.3995 41.0393C52.9932 41.0393 52.6573 41.1716 52.3947 41.4361C52.132 41.7005 52 42.0372 52 42.4459C52 42.8546 52.132 43.1913 52.3947 43.4557L56.4857 47.5672C56.7727 47.8557 57.1072 48 57.4904 48C57.8737 48 58.2081 47.8557 58.4952 47.5672L66.6053 39.4164C66.868 39.152 67 38.8153 67 38.4066C67 37.9978 66.868 37.6612 66.6053 37.3967C66.3427 37.1322 66.0068 37 65.6005 37C65.1943 37 64.8584 37.1322 64.5957 37.3967L57.4904 44.5377Z" fill="#124A73"/>
<path d="M98.7871 42.9912C98.7871 41.3344 100.13 39.9912 101.787 39.9912H174.088C175.745 39.9912 177.088 41.3344 177.088 42.9912C177.088 44.6481 175.745 45.9912 174.088 45.9912H101.787C100.13 45.9912 98.7871 44.6481 98.7871 42.9912Z" fill="#457AA5"/>
<path d="M184.08 42.9912C184.08 41.3344 185.423 39.9912 187.08 39.9912H235.611C237.268 39.9912 238.611 41.3344 238.611 42.9912C238.611 44.6481 237.268 45.9912 235.611 45.9912H187.08C185.423 45.9912 184.08 44.6481 184.08 42.9912Z" fill="#457AA5"/>
<rect x="97.4824" y="100.991" width="118.668" height="6" rx="3" fill="#BEC0C1"/>
</svg>

<svg xmlns="http://www.w3.org/2000/svg" width="272" height="143" fill="none" viewBox="0 0 272 143"><rect width="272" height="143" fill="#eff6fb" rx="8"/><rect width="50" height="29" x="74" y="117" fill="#bec0c1" rx="14.5" transform="rotate(180 74 117)"/><circle cx="39.5" cy="102.5" r="12.5" fill="#fff" transform="rotate(180 39.5 102.5)"/><path fill="#bec0c1" stroke="#bec0c1" d="m39.5 103.831-4.658 4.658a.9.9 0 0 1-.665.261.9.9 0 0 1-.666-.261.9.9 0 0 1-.261-.666.9.9 0 0 1 .261-.665l4.658-4.658-4.658-4.658a.9.9 0 0 1-.261-.665q0-.404.261-.666a.9.9 0 0 1 .666-.261q.404 0 .665.261l4.658 4.658 4.658-4.658a.9.9 0 0 1 .665-.261q.404 0 .666.261a.9.9 0 0 1 .261.666q0 .404-.261.665L40.83 102.5l4.658 4.658a.9.9 0 0 1 .261.665q0 .404-.261.666a.9.9 0 0 1-.666.261.9.9 0 0 1-.665-.261z"/><rect width="50" height="29" x="24" y="27" fill="#124a73" rx="14.5"/><circle cx="59.5" cy="41.5" r="12.5" fill="#fff"/><path fill="#124a73" d="m57.49 44.538-3.086-3.102q-.394-.397-1.005-.397t-1.004.397-.395 1.01.395 1.01l4.09 4.111q.431.433 1.005.433.575 0 1.005-.433l8.11-8.15q.395-.398.395-1.01 0-.614-.395-1.01Q66.211 37 65.6 37t-1.004.397z"/><path fill="#457aa5" d="M98.787 42.991a3 3 0 0 1 3-3h72.301a3 3 0 1 1 0 6h-72.301a3 3 0 0 1-3-3M184.08 42.991a3 3 0 0 1 3-3h48.531a3 3 0 1 1 0 6H187.08a3 3 0 0 1-3-3"/><rect width="118.668" height="6" x="97.482" y="100.991" fill="#bec0c1" rx="3"/></svg>
